X:46
T:March. JMP.046
M:C
L:1/8
Q:1/2=80
C:â€51â€³
S:John Miller MS. Perth, 1799.(for the fife)
R:.March
O:Scotland
A:Perth
H:1799
Z:vmp.C. Graebe
K:D Major
â€œ_Key sig Gmaj in MSâ€A2 | d2 f>g a2 g>f | g2 e>e e2 g>e |\
f2 B>B B2 e>d | c2 A>A A2 d>c |!
â€œtrâ€B2 e>d c2 f>e | d2 g>f e2 a>g | f>ad>f f>ed>c | d2 d>d d2 :|!
|:(c/d/) | e2 e>e e>fe>d | c2 c>c c>dc>B |A>fe>d (c>B)(A>^G) |\
A2 A>A A2 fg |!
a2 A>A (Aa)g>f | g2 e>e e2 e>f |g2 A>A A>g(fe) |â€trâ€ f2 d>d d2 A>A |!
B>B c>c d>d e>e | f>ef>g â€œtrâ€a2 g2 | fefg f2e2 | d2 dd d2 |]

